src/pos-icons/air-filter.svg

<svg height="24" viewBox="0 0 24 24" width="24" xmlns="http://www.w3.org/2000/svg"><path d="m19 18.31v1.69a2 2 0 0 1 -2 2h-10a2 2 0 0 1 -2-2v-3.7c-.46-.18-1.05-.3-2-.3a1 1 0 0 1 -1-1 1 1 0 0 1 1-1c.82 0 1.47.08 2 .21v-1.91c-.46-.18-1.05-.3-2-.3a1 1 0 0 1 -1-1 1 1 0 0 1 1-1c.82 0 1.47.08 2 .21v-1.91c-.46-.18-1.05-.3-2-.3a1 1 0 0 1 -1-1 1 1 0 0 1 1-1c.82 0 1.47.08 2 .21v-2.21a2 2 0 0 1 2-2h10a2 2 0 0 1 2 2v2.16c1.78.31 2.54.97 2.71 1.13.39.39.39 1.03 0 1.42s-.91.38-1.42 0-1.04-.71-3.29-.71c-1.26 0-2.09.41-3.05.9-1.04.51-2.21 1.1-3.95 1.1-.36 0-.69 0-1-.04v-2.01c.3.05.63.05 1 .05 1.26 0 2.09-.41 3.05-.89 1.04-.52 2.22-1.11 3.95-1.11v-2h-10v16h10v-2c1.5 0 1.97.29 2 .31m-2-8.31c-1.73 0-2.91.59-3.95 1.11-.96.48-1.79.89-3.05.89-.37 0-.7 0-1-.05v2.01c.31.04.64.04 1 .04 1.74 0 2.91-.59 3.95-1.1.96-.48 1.79-.9 3.05-.9 2.25 0 3.29.71 3.29.71.51.39 1.03.39 1.42 0s.39-1.02 0-1.42c-.21-.21-1.46-1.29-4.71-1.29m0 4c-1.73 0-2.91.59-3.95 1.11-.96.48-1.79.89-3.05.89-.37 0-.7 0-1-.05v2.01c.31.04.64.04 1 .04 1.74 0 2.91-.59 3.95-1.1.96-.48 1.79-.9 3.05-.9 2.25 0 3.29.71 3.29.71.51.39 1.03.39 1.42 0s.39-1.02 0-1.42c-.21-.21-1.46-1.29-4.71-1.29z"/></svg>

<?xml version="1.0" encoding="UTF-8"?><!DOCTYPE svg PUBLIC "-//W3C//DTD SVG 1.1//EN" "http://www.w3.org/Graphics/SVG/1.1/DTD/svg11.dtd"><svg xmlns="http://www.w3.org/2000/svg" xmlns:xlink="http://www.w3.org/1999/xlink" version="1.1" id="mdi-air-filter" width="24" height="24" viewBox="0 0 24 24"><path d="M19,18.31V20A2,2 0 0,1 17,22H7A2,2 0 0,1 5,20V16.3C4.54,16.12 3.95,16 3,16A1,1 0 0,1 2,15A1,1 0 0,1 3,14C3.82,14 4.47,14.08 5,14.21V12.3C4.54,12.12 3.95,12 3,12A1,1 0 0,1 2,11A1,1 0 0,1 3,10C3.82,10 4.47,10.08 5,10.21V8.3C4.54,8.12 3.95,8 3,8A1,1 0 0,1 2,7A1,1 0 0,1 3,6C3.82,6 4.47,6.08 5,6.21V4A2,2 0 0,1 7,2H17A2,2 0 0,1 19,4V6.16C20.78,6.47 21.54,7.13 21.71,7.29C22.1,7.68 22.1,8.32 21.71,8.71C21.32,9.1 20.8,9.09 20.29,8.71V8.71C20.29,8.71 19.25,8 17,8C15.74,8 14.91,8.41 13.95,8.9C12.91,9.41 11.74,10 10,10C9.64,10 9.31,10 9,9.96V7.95C9.3,8 9.63,8 10,8C11.26,8 12.09,7.59 13.05,7.11C14.09,6.59 15.27,6 17,6V4H7V20H17V18C18.5,18 18.97,18.29 19,18.31M17,10C15.27,10 14.09,10.59 13.05,11.11C12.09,11.59 11.26,12 10,12C9.63,12 9.3,12 9,11.95V13.96C9.31,14 9.64,14 10,14C11.74,14 12.91,13.41 13.95,12.9C14.91,12.42 15.74,12 17,12C19.25,12 20.29,12.71 20.29,12.71V12.71C20.8,13.1 21.32,13.1 21.71,12.71C22.1,12.32 22.1,11.69 21.71,11.29C21.5,11.08 20.25,10 17,10M17,14C15.27,14 14.09,14.59 13.05,15.11C12.09,15.59 11.26,16 10,16C9.63,16 9.3,16 9,15.95V17.96C9.31,18 9.64,18 10,18C11.74,18 12.91,17.41 13.95,16.9C14.91,16.42 15.74,16 17,16C19.25,16 20.29,16.71 20.29,16.71V16.71C20.8,17.1 21.32,17.1 21.71,16.71C22.1,16.32 22.1,15.69 21.71,15.29C21.5,15.08 20.25,14 17,14Z" /></svg>
